app/icons/svg/ic_column.svg

<svg xmlns="http://www.w3.org/2000/svg" viewBox="0 0 24 24"><g fill="none" fill-rule="evenodd"><path d="M0 0h24v24H0z"/><path fill="#454545" d="M22 3v18H2V3h20zM8 5H4v14h4V5zm6 0h-4v14h4V5zm6 0h-4v14h4V5z"/></g></svg>

<?xml version="1.0" encoding="UTF-8"?>
<svg width="24px" height="24px" viewBox="0 0 24 24" version="1.1" xmlns="http://www.w3.org/2000/svg" xmlns:xlink="http://www.w3.org/1999/xlink">
    <title>Icons/IXT/24dp/ic_column</title>
    <g id="Icons/IXT/24dp/ic_column" stroke="none" stroke-width="1" fill="none" fill-rule="evenodd">
        <g id="ic_column">
            <rect id="Container" x="0" y="0" width="24" height="24"></rect>
            <path d="M22,3 L22,21 L2,21 L2,3 L22,3 Z M8,5 L4,5 L4,19 L8,19 L8,5 Z M14,5 L10,5 L10,19 L14,19 L14,5 Z M20,5 L16,5 L16,19 L20,19 L20,5 Z" id="Icon" fill="#454545"></path>
        </g>
    </g>
</svg>
